Origami/32x32/apps/pycharmedu.svg

<svg width="32" height="32" version="1" xmlns="http://www.w3.org/2000/svg">
 <path d="M 3.4003906,31 C 2.6247906,31 2,30.375209 2,29.599609 v -1 C 2,29.375209 2.6247906,30 3.4003906,30 H 16 28.599609 C 29.375209,30 30,29.375209 30,28.599609 v 1 C 30,30.375209 29.375209,31 28.599609,31 H 16 Z" style="opacity:.2"/>
 <path d="m16 2h-12.6c-0.7756 0-1.4 0.6244-1.4 1.4v12.6h14z" style="fill:#a2e36e"/>
 <path d="m16 2h12.6c0.7756 0 1.4 0.6244 1.4 1.4v12.6h-14z" style="fill:#2cbfeb"/>
 <path d="m16 30h-12.6c-0.7756 0-1.4-0.6244-1.4-1.4v-12.6h14z" style="fill:#21d789"/>
 <path d="m16 30h12.6c0.7756 0 1.4-0.6244 1.4-1.4v-12.6h-14z" style="fill:#f7c73c"/>
 <path d="M 3.4003906 2 C 2.6247906 2 2 2.6247906 2 3.4003906 L 2 4.4003906 C 2 3.6247906 2.6247906 3 3.4003906 3 L 16 3 L 28.599609 3 C 29.375209 3 30 3.6247906 30 4.4003906 L 30 3.4003906 C 30 2.6247906 29.375209 2 28.599609 2 L 16 2 L 3.4003906 2 z" style="fill:#ffffff;opacity:.2"/>
 <rect x="6" y="6" width="20" height="20" style="fill:#3f3f3f"/>
 <path d="m9.0002425 23.9999h7.9999995" style="fill:none;opacity:.2;stroke-linecap:round;stroke-width:2;stroke:#000000"/>
 <path d="m9.0002425 23h7.9999995" style="fill:none;stroke-linecap:round;stroke-width:2;stroke:#ffffff"/>
 <path d="m9.0002425 13.999657s4.0000025 0.464501 4.0000025-1.999997c0-2.4645014-4.0000025-2.0000014-4.0000025-2.0000014m9.8e-5 8.0000994v-8.0000014" style="fill:none;opacity:.2;stroke-linecap:round;stroke-linejoin:bevel;stroke-width:1.9999999;stroke:#000000"/>
 <path d="m9.0002425 12.999757s4.0000025 0.464501 4.0000025-1.999997c0-2.4645014-4.0000025-2.0000014-4.0000025-2.0000014m9.8e-5 8.0000994v-8.0000014" style="fill:none;stroke-linecap:round;stroke-linejoin:bevel;stroke-width:1.9999999;stroke:#ffffff"/>
 <path d="m17.000242 17.999413h4.000001m-4.000001-3.999999h4.000001m-4.000001-3.9999994h4.000001m-3.999901 8.0001004v-8.0000024" style="fill:none;opacity:.2;stroke-linecap:round;stroke-linejoin:bevel;stroke-width:1.9999999;stroke:#000000"/>
 <path d="m17.000242 16.999756h4.000001m-4.000001-3.999999h4.000001m-4.000001-3.9999994h4.000001m-3.999901 8.0001004v-8.0000024" style="fill:none;stroke-linecap:round;stroke-linejoin:bevel;stroke-width:1.9999999;stroke:#ffffff"/>
</svg>

<svg xmlns="http://www.w3.org/2000/svg" width="32" height="32" version="1">
 <path style="opacity:0.2" d="M 3.4003906,31 C 2.6247906,31 2,30.375209 2,29.599609 v -1 C 2,29.375209 2.6247906,30 3.4003906,30 H 16 28.599609 C 29.375209,30 30,29.375209 30,28.599609 v 1 C 30,30.375209 29.375209,31 28.599609,31 H 16 Z"/>
 <path style="fill:#a2e36e" d="M 16,2 H 3.4 C 2.6244,2 2,2.6244 2,3.4 V 16 h 14 z"/>
 <path style="fill:#2cbfeb" d="M 16,2 H 28.6 C 29.3756,2 30,2.6244 30,3.4 V 16 H 16 Z"/>
 <path style="fill:#21d789" d="M 16,30 H 3.4 C 2.6244,30 2,29.3756 2,28.6 V 16 h 14 z"/>
 <path style="fill:#f7c73c" d="M 16,30 H 28.6 C 29.3756,30 30,29.3756 30,28.6 V 16 H 16 Z"/>
 <path style="fill:#ffffff;opacity:0.2" d="M 3.4003906 2 C 2.6247906 2 2 2.6247906 2 3.4003906 L 2 4.4003906 C 2 3.6247906 2.6247906 3 3.4003906 3 L 16 3 L 28.599609 3 C 29.375209 3 30 3.6247906 30 4.4003906 L 30 3.4003906 C 30 2.6247906 29.375209 2 28.599609 2 L 16 2 L 3.4003906 2 z"/>
 <rect style="fill:#3f3f3f" width="20" height="20" x="6" y="6"/>
 <path style="opacity:0.2;fill:none;stroke:#000000;stroke-width:2;stroke-linecap:round" d="M 9.0002425,23.9999 H 17.000242"/>
 <path style="fill:none;stroke:#ffffff;stroke-width:2;stroke-linecap:round" d="M 9.0002425,23 H 17.000242"/>
 <path style="opacity:0.2;fill:none;stroke:#000000;stroke-width:1.99999988;stroke-linecap:round;stroke-linejoin:bevel" d="m 9.0002425,13.999657 c 0,0 4.0000025,0.464501 4.0000025,-1.999997 0,-2.4645014 -4.0000025,-2.0000014 -4.0000025,-2.0000014 m 9.8e-5,8.0000994 V 9.9997566"/>
 <path style="fill:none;stroke:#ffffff;stroke-width:1.99999988;stroke-linecap:round;stroke-linejoin:bevel" d="m 9.0002425,12.999757 c 0,0 4.0000025,0.464501 4.0000025,-1.999997 0,-2.4645014 -4.0000025,-2.0000014 -4.0000025,-2.0000014 m 9.8e-5,8.0000994 V 8.9998566"/>
 <path style="opacity:0.2;fill:none;stroke:#000000;stroke-width:1.99999988;stroke-linecap:round;stroke-linejoin:bevel" d="m 17.000242,17.999413 h 4.000001 m -4.000001,-3.999999 h 4.000001 M 17.000242,9.9994146 h 4.000001 M 17.000342,17.999515 V 9.9995126"/>
 <path style="fill:none;stroke:#ffffff;stroke-width:1.99999988;stroke-linecap:round;stroke-linejoin:bevel" d="m 17.000242,16.999756 h 4.000001 m -4.000001,-3.999999 h 4.000001 M 17.000242,8.9997576 h 4.000001 M 17.000342,16.999858 V 8.9998556"/>
</svg>
